X:69
T:The Lass Among the Eatnoch
S:Petrie's Third Collection of Strathspey Reels and Country Dances &c.
Z:Steve Wyrick , 7/31/05
N:Petrie's Third Collection, page 26
L:1/8
M:C
R:Strathspey
K:C
d|c<Gc>G A2Ad|c<Gc>B A>G E2|D<DE>G A/A/A A>B|c>ded c<AA::a|
g<ee>a g>ed<e|c<Gc>B A>G E2|D>DE>G A/A/A A2|c>de>d cAA:|]
